docs/images/icons/facebook.svg

<?xml version="1.0" encoding="UTF-8"?>
<svg xmlns="http://www.w3.org/2000/svg" xmlns:xlink="http://www.w3.org/1999/xlink" width="12px" height="18px" viewBox="0 0 12 18" version="1.1">
<g id="surface1">
<path style=" stroke:none;fill-rule:nonzero;fill:rgb(0%,0%,0%);fill-opacity:1;" d="M 10.46875 10.125 L 11 6.867188 L 7.667969 6.867188 L 7.667969 4.753906 C 7.667969 3.863281 8.132812 2.992188 9.625 2.992188 L 11.140625 2.992188 L 11.140625 0.21875 C 11.140625 0.21875 9.765625 0 8.449219 0 C 5.707031 0 3.910156 1.558594 3.910156 4.382812 L 3.910156 6.867188 L 0.859375 6.867188 L 0.859375 10.125 L 3.910156 10.125 L 3.910156 18 L 7.667969 18 L 7.667969 10.125 Z M 10.46875 10.125 "/>
</g>
</svg>

<svg xmlns="http://www.w3.org/2000/svg" width="12" height="18"><path d="M10.469 10.125L11 6.867H7.668V4.754c0-.89.465-1.762 1.957-1.762h1.516V.22S9.766 0 8.449 0C5.707 0 3.91 1.559 3.91 4.383v2.484H.86v3.258h3.05V18h3.758v-7.875zm0 0" id="surface1"/></svg>
